images/AppyThings Logo Simple.svg

<?xml version="1.0" encoding="UTF-8"?>
<svg width="19px" height="26px" viewBox="0 0 19 26" version="1.1" xmlns="http://www.w3.org/2000/svg" xmlns:xlink="http://www.w3.org/1999/xlink">
    <!-- Generator: Sketch Beta 63 (92418) - https://sketch.com -->
    <title>AppyThings Logo Simple</title>
    <desc>Created with Sketch Beta.</desc>
    <g id="AppyThings-Logo-Simple" stroke="none" stroke-width="1" fill="none" fill-rule="evenodd">
        <path d="M15.3712717,6.24902324 C15.2509673,8.30813098 15.3730935,9.78919315 15.7376503,10.6922098 C16.2844855,12.0467347 17.0259569,12.7740284 17.5535801,14.3544543 C17.905329,15.4080716 18.0459307,17.1526958 17.9753855,19.588327 C16.3642611,18.367146 15.2673609,17.413943 14.6846847,16.7287182 C14.1020086,16.0434934 13.1733791,15.1085126 11.8987964,13.923776 C13.3124278,11.2735074 14.2088011,9.32267671 14.5879164,8.07128392 C14.9670318,6.81989113 15.2281502,6.2124709 15.3712717,6.24902324 Z" id="Path-12" fill="#B51615"></path>
        <path d="M12.206136,14.1864038 C13.1706738,12.2279356 13.8357656,10.6608037 14.2014112,9.48500822 C14.5670568,8.30921271 15.156435,6.74208085 15.9695459,4.78361265 L11.0709125,8.09589607 L12.206136,14.1864038 Z" id="Path-11" fill="#A92119"></path>
        <path d="M19.382051,21.1355369 C19.382051,21.6101031 18.6844277,22.3501678 17.2891812,23.355731 C16.1888964,23.9768903 15.271742,24.6206165 14.537718,25.2869098 C13.803694,25.953203 12.7999098,26.1383467 11.5263654,25.8423409 C11.217213,21.7528833 11.0653954,19.668212 11.0709125,19.588327 C11.194653,17.7966239 11.5042672,15.9084402 11.999755,13.923776 C13.5577857,14.9600688 14.8810493,16.0098911 15.9695459,17.0732428 C17.6022908,18.6682703 19.382051,20.4236877 19.382051,21.1355369 Z" id="Path-8" fill="#D5361F"></path>
        <path d="M9.47082329,0.0974052397 C10.70204,0.530683979 11.7021848,0.963537225 12.4712577,1.39596498 C13.624867,2.0446066 15.7554352,3.1042896 16.0544504,4.19056868 C16.2537939,4.91475473 14.942713,6.27914255 12.1212077,8.28373212 C11.0715222,8.19600155 10.345487,7.56534935 9.94310206,6.39177552 C9.54071713,5.2182017 9.38329087,3.12007827 9.47082329,0.0974052397 Z" id="Path-10" fill="#A22E29"></path>
        <path d="M2.60180374,8.28373212 C3.56903827,7.18335989 4.67040325,5.94008167 5.90589868,4.55389746 C7.75914183,2.47462115 8.15661705,0.132785827 9.31435013,0.0977636665 C10.4720832,0.0627415056 11.0709125,2.60279495 11.0709125,3.96433861 C11.0709125,4.87203437 10.868217,5.70189824 10.462826,6.4539302 L2.60180374,8.28373212 Z" id="Path-9" fill="#D7413A"></path>
        <path d="M1.14062033,18.5741082 L6.81478709,19.7762911 L9.7248062,22.3345603 C9.0095526,22.8448233 8.14437335,23.3598631 7.12926846,23.8796797 C6.54839462,24.1771345 5.95470021,24.4579747 5.34818522,24.7222002 L5.34817838,24.7221845 C4.55722225,25.066761 3.63343567,24.7693964 3.19201277,24.0281203 C2.59162901,23.019903 2.14864081,22.1844631 1.86304815,21.5218007 C1.46604628,20.6006347 1.22523701,19.6180705 1.14062033,18.5741082 Z" id="Path-4" fill="#D05C61"></path>
        <path d="M0.199014394,17.531782 C0.692589091,18.1747515 1.0887561,18.6046311 1.38751543,18.8214209 C1.93710274,19.2202199 2.63930524,19.4499721 3.55655008,19.7528025 C4.16804664,19.9546894 5.283564,20.1525966 6.90310219,20.3465242 C5.91104207,18.5882973 5.15155589,17.3153356 4.62464365,16.527639 C4.09773141,15.7399423 3.42551013,15.0338582 2.6079798,14.4093865 C1.83945033,14.973099 1.31148413,15.4172474 1.02408118,15.7418317 C0.8151683,15.9777716 0.551121385,16.2747884 0.231940433,16.6328821 L0.231975116,16.6329131 C0.00660256196,16.8857618 -0.0072343193,17.2631061 0.199014394,17.531782 Z" id="Path-3" fill="#D5361F"></path>
        <path d="M5.6679974,24.5961147 C8.55458224,25.3746533 10.2678027,25.7821707 10.8076589,25.8186669 C11.3475151,25.855163 11.6187876,25.8673551 11.6214763,25.855243 L11.5870877,25.3181087 L9.7248062,22.3345603 L5.6679974,24.5961147 Z" id="Path-6" fill="#A92D2C"></path>
        <path d="M1.14944963,10.197301 C0.908499109,11.0978834 1.39467583,12.5019119 2.6079798,14.4093865 C4.1827407,16.9605069 5.35188547,18.6868204 6.11541413,19.588327 C7.26070712,20.9405869 7.87902968,20.7584393 9.20143706,22.1943532 C10.083042,23.1516291 10.8899077,24.367625 11.6220341,25.8423409 C11.6681362,19.8321745 11.8628368,15.9468621 12.206136,14.1864038 C12.7210848,11.5457163 12.5756087,8.76645464 12.206136,8.23937925 C11.8366633,7.71230387 11.2107131,7.71230387 10.8413462,6.9088831 C10.6527016,6.49855677 10.7561215,5.96319342 10.9463327,5.21515364 C10.9850516,5.06288454 11.0265782,4.80413176 11.0709125,4.43889532 C9.3923767,5.39413136 8.12925946,6.09744924 7.28156074,6.54884896 C6.01001266,7.22594854 5.02781856,7.22594854 3.9612348,7.47895374 C2.89465103,7.73195893 1.5108754,8.84642744 1.14944963,10.197301 Z" id="Path-5" fill="#D01711"></path>
    </g>
</svg>

<svg xmlns="http://www.w3.org/2000/svg" width="19" height="26" viewBox="0 0 19 26"><title>AppyThings Logo Simple</title><g fill="none" fill-rule="evenodd"><path fill="#B51615" d="M15.371 6.249c-.12 2.06.002 3.54.367 4.443.546 1.355 1.288 2.082 1.816 3.662.351 1.054.492 2.799.421 5.234-1.61-1.22-2.708-2.174-3.29-2.86-.583-.685-1.512-1.62-2.786-2.804 1.413-2.65 2.31-4.601 2.689-5.853.379-1.251.64-1.859.783-1.822z"/><path fill="#A92119" d="M12.206 14.186c.965-1.958 1.63-3.525 1.995-4.701.366-1.176.955-2.743 1.769-4.701l-4.9 3.312 1.136 6.09z"/><path fill="#D5361F" d="M19.382 21.136c0 .474-.698 1.214-2.093 2.22-1.1.62-2.017 1.265-2.751 1.93-.734.667-1.738.852-3.012.556-.309-4.09-.46-6.174-.455-6.254.124-1.791.433-3.68.929-5.664 1.558 1.036 2.881 2.086 3.97 3.15 1.632 1.594 3.412 3.35 3.412 4.062z"/><path fill="#A22E29" d="M9.47.097c1.232.434 2.232.867 3.001 1.299 1.154.649 3.284 1.708 3.583 2.795.2.724-1.111 2.088-3.933 4.093-1.05-.088-1.776-.719-2.178-1.892-.402-1.174-.56-3.272-.472-6.295z"/><path fill="#D7413A" d="M2.602 8.284c.967-1.1 2.068-2.344 3.304-3.73C7.759 2.474 8.156.133 9.314.098c1.158-.035 1.757 2.505 1.757 3.866 0 .908-.203 1.738-.608 2.49l-7.861 1.83z"/><path fill="#D05C61" d="M1.14 18.574l5.675 1.202 2.91 2.559c-.715.51-1.58 1.025-2.596 1.545-.58.297-1.174.578-1.78.842a1.713 1.713 0 0 1-2.157-.694c-.6-1.008-1.043-1.844-1.329-2.506a9.291 9.291 0 0 1-.722-2.948z"/><path fill="#D5361F" d="M.199 17.532c.494.643.89 1.073 1.189 1.29.55.398 1.251.628 2.169.93.611.203 1.727.4 3.346.595-.992-1.759-1.751-3.032-2.278-3.82a8.883 8.883 0 0 0-2.017-2.118c-.769.564-1.297 1.008-1.584 1.333l-.792.89a.705.705 0 0 0-.033.9z"/><path fill="#A92D2C" d="M5.668 24.596c2.887.779 4.6 1.186 5.14 1.223.54.036.81.048.813.036l-.034-.537-1.862-2.983-4.057 2.261z"/><path fill="#D01711" d="M1.15 10.197c-.242.9.245 2.305 1.458 4.212 1.575 2.552 2.744 4.278 3.507 5.18 1.146 1.352 1.764 1.17 3.086 2.605.882.958 1.689 2.174 2.421 3.648.046-6.01.24-9.895.584-11.656.515-2.64.37-5.42 0-5.947-.37-.527-.995-.527-1.365-1.33-.188-.41-.085-.946.105-1.694.04-.152.08-.41.125-.776a169.222 169.222 0 0 1-3.79 2.11c-1.271.677-2.253.677-3.32.93-1.066.253-2.45 1.367-2.812 2.718z"/></g></svg>
